assets/images/hot.svg

<svg height="14" viewBox="0 0 27 14" width="27" xmlns="http://www.w3.org/2000/svg" xmlns:xlink="http://www.w3.org/1999/xlink"><linearGradient id="a" x1="0%" x2="97.050251%" y1="47.504328%" y2="54.283135%"><stop offset="0" stop-color="#f55520"/><stop offset="1" stop-color="#e73b3b"/></linearGradient><g fill="none" fill-rule="evenodd"><path d="m4 0h19c2.209139-0 4 1.790861 4 4v6c0 2.209139-1.790861 4-4 4h-23v-10c-0-2.209139 1.790861-4 4-4z" fill="url(#a)"/><path d="m6.04675029 10.741989v-3.00690613h2.80102622v3.00690613h1.04675029v-6.88397795h-1.04675029v2.93922652h-2.80102622v-2.93922652h-1.04675029v6.88397795zm7.87970351.058011c.7366021 0 1.3472064-.2610497 1.8221209-.7348066.6385405-.63698411.6589308-1.35104861.6591216-2.53716774l-.0000566-.22802566c0-1.32458564.0193842-2.08839779-.659065-2.76519337-.4749145-.47375691-1.0855188-.73480663-1.8221209-.73480663-.736602 0-1.3375142.26104972-1.8124287.73480663-.5986317.59717257-.6615132 1.26209161-.6680233 2.32020584v.88997506c.0065101 1.05811423.0693916 1.72303327.6680233 2.32020587.4749145.4737569 1.0758267.7348066 1.8124287.7348066zm0-.9378453c-.4070695 0-.7850627-.16436464-1.027366-.42541437-.3203788-.34699202-.3986936-.71123218-.4064065-1.915361l-.0006631-.22137933c0-1.38259669.067845-1.76933702.4070696-2.13674033.2423033-.26104973.6202965-.42541437 1.027366-.42541437.4070696 0 .7850627.16436464 1.027366.42541437.3392247.36740331.4070696.75414364.4070696 2.13674033s-.0678449 1.76933702-.4070696 2.13674033c-.2423033.26104973-.6202964.42541437-1.027366.42541437zm6.1738883.8798343v-5.94613265h1.8996579v-.9378453h-4.8460661v.9378453h1.8996579v5.94613265z" fill="#fff" fill-rule="nonzero"/></g></svg>

<?xml version="1.0" encoding="UTF-8"?>
<svg width="27px" height="14px" viewBox="0 0 27 14" version="1.1" xmlns="http://www.w3.org/2000/svg" xmlns:xlink="http://www.w3.org/1999/xlink">
    <defs>
        <linearGradient x1="0%" y1="47.5043281%" x2="97.0502513%" y2="54.2831349%" id="linearGradient-1">
            <stop stop-color="#F55520" offset="0%"></stop>
            <stop stop-color="#E73B3B" offset="100%"></stop>
        </linearGradient>
    </defs>
    <g id="页面-1" stroke="none" stroke-width="1" fill="none" fill-rule="evenodd">
        <g id="hot备份">
            <path d="M4,0 L23,0 C25.209139,-4.05812251e-16 27,1.790861 27,4 L27,10 C27,12.209139 25.209139,14 23,14 L0,14 L0,14 L0,4 C-2.705415e-16,1.790861 1.790861,4.05812251e-16 4,0 Z" id="矩形备份-22" fill="url(#linearGradient-1)"></path>
            <path d="M6.04675029,10.741989 L6.04675029,7.73508287 L8.84777651,7.73508287 L8.84777651,10.741989 L9.8945268,10.741989 L9.8945268,3.85801105 L8.84777651,3.85801105 L8.84777651,6.79723757 L6.04675029,6.79723757 L6.04675029,3.85801105 L5,3.85801105 L5,10.741989 L6.04675029,10.741989 Z M13.9264538,10.8 C14.6630559,10.8 15.2736602,10.5389503 15.7485747,10.0651934 C16.3871152,9.42820929 16.4075055,8.71414479 16.4076963,7.52802566 L16.4076397,7.3 C16.4076397,5.97541436 16.4270239,5.21160221 15.7485747,4.53480663 C15.2736602,4.06104972 14.6630559,3.8 13.9264538,3.8 C13.1898518,3.8 12.5889396,4.06104972 12.1140251,4.53480663 C11.5153934,5.1319792 11.4525119,5.79689824 11.4460018,6.85501247 L11.4460018,7.74498753 C11.4525119,8.80310176 11.5153934,9.4680208 12.1140251,10.0651934 C12.5889396,10.5389503 13.1898518,10.8 13.9264538,10.8 Z M13.9264538,9.8621547 C13.5193843,9.8621547 13.1413911,9.69779006 12.8990878,9.43674033 C12.578709,9.08974831 12.5003942,8.72550815 12.4926813,7.52137933 L12.4920182,7.3 C12.4920182,5.91740331 12.5598632,5.53066298 12.8990878,5.16325967 C13.1413911,4.90220994 13.5193843,4.7378453 13.9264538,4.7378453 C14.3335234,4.7378453 14.7115165,4.90220994 14.9538198,5.16325967 C15.2930445,5.53066298 15.3608894,5.91740331 15.3608894,7.3 C15.3608894,8.68259669 15.2930445,9.06933702 14.9538198,9.43674033 C14.7115165,9.69779006 14.3335234,9.8621547 13.9264538,9.8621547 Z M20.1003421,10.741989 L20.1003421,4.79585635 L22,4.79585635 L22,3.85801105 L17.1539339,3.85801105 L17.1539339,4.79585635 L19.0535918,4.79585635 L19.0535918,10.741989 L20.1003421,10.741989 Z" id="HOT备份" fill="#FFFFFF" fill-rule="nonzero"></path>
        </g>
    </g>
</svg>
